src/svg/logo-html5.svg

<svg xmlns="http://www.w3.org/2000/svg" viewBox="0 0 512 512"><path d="M64 32l34.936 403.213L255.769 480l157.245-44.854L448 32H64zm307.997 132h-184l3.991 51h176.008l-13.505 151.386-98.5 28.094-98.682-27.976L150.545 289h48.254l3.423 39.287 53.769 14.781 53.422-14.915L314.987 264H147.986l-12.571-149.589 240.789.016L371.997 164z"/></svg>

<svg xmlns="http://www.w3.org/2000/svg" width="512" height="512" viewBox="0 0 512 512"><title>ionicons-v5_logos</title><path d="M64,32,98.94,435.21,255.77,480,413,435.15,448,32ZM372,164H188l4,51H368L354.49,366.39,256,394.48l-98.68-28L150.54,289H198.8l3.42,39.29L256,343.07l53.42-14.92L315,264H148L135.41,114.41l240.79,0Z"/></svg>
